X:1
T:Title
%%score 1 { ( 2 4 ) | 3 }
L:1/8
Q:1/4=120
M:2/2
K:Eb
V:1 treble nm="Voice"
V:2 treble nm="Piano"
V:4 treble 
V:3 bass 
V:1
 x8 | x8 | x8 | x8 | z2!p! B,2 =A,2 B,2 | !>!B2 A2 !>!B2 A2 | !>!B2 A2 E2 F2 | (G8 | %8
 G2) G2!pp! ^F2 G2 | d2 c2 d2 c2 | d2 c2 G2 A2 | B8 | z2!ped! B2 =A2 B2 | f2 e2!ped! f2 e2 | %14
 f2 e2 G2 =A2 | =B8 x8 | B2!p! B2 ._B2 =B2 | d2 c2 d2 c2 | d2 c2 C2 D2 | E8 |: z2 B,2 C2 E2 | %21
!p! !>!G4 !>!G4- | G2!p!!mp! FE DE F2 |!<(! G8!<)! | z2!ped! B,2!p! C2 E2 |!f!!p! B4 B4- x2 | %26
 B2 AG F!ped!G A2 | B8 | z2!f! e2!p! d2 .B2 | !>!c2 cB!ped! c2 x2 | z2 d2 .c2 A2 | B2 BA!ped! B4 | %32
 z2 c2 B2 G2 |!p! G2 GF G4 | z2 CD EG!ped! c2 |!pp! F8 | z2!p! B,2 C2 E2 | !>!G4 !>!G4- | %38
!p! G2 FE DE F2 |!ped!!<(! G8!<)! | z2 B,2 C2 E2 |!p! B4 B4- x2 | B2 AG F!ped!G A2 | B8 | %44
 z2 e2 d2 B2 | c2 cB c4 | z2 d2 c2 A2 |!mp! B2 BA B4 | z2 c2 B2 G2 | G2 GF G4 | z2 CE DE F2 |99 %51
 E8 :|99!ped! E8- |] E2 z2 x4 |] %54
V:2
 z2!mf! [B,B]2!<(! [Cc]2 [Ee]2!<)! |!p! g4 g4- | g2!p! (fe) fe f2 | e8 | [EGBe]2!p! B,2- =A,2 B,2 | %5
 !>![EB]2 [EA]2 !>![EB]2 [EA]2 | !>![EB]2 [EA]2 E2 F2 |!<(! F2 E2 (c2!<)! B2) | %8
 ([GBf]2 [EGBe]2) [=A,D^F]2!ped! [B,EG]2 | [Bd]2 [Ac]2 [Bd]2 [Ac]2 | [Bd]2 [Ac]2 G2 [FA]2 | %11
 (F2 E2) (c2 B2) | ([GBf]2!p! [EGBe]2) [E_G=A]2 [E=GB]2 |!<(! ([df]2 [ce]2) ([df]2!<)! [ce]2) | %14
 ([Gdf]2 [Gce]2) [=A,CG]2 [C=E=A]2 | =A2 G2 .c8 ([=EGB=e]2[K:treble-8] [DG=Bd]2) | %16
 ([=bd'=a']2 [gbd'g']2) ([_g_b]2!>(! [=g=b]2 | [_bd']2 [ac']2) ([bd']2!>)! [ac']2) | %18
 ([bd']2 [ac']2) [Ac]2 [^FBd]2 | e4 x4 |:!mp! [cegb]2!f! B2 c2 e2 | z2 [ac'e']2 z2 [ac'e']2 | %22
 z2 [cf]e [Bd][ce] [df]2 | (f2!<(! e2) (c'2!<)! b2) |!>(! ([fbf']2!>)! [egbe']2) [Gc]2 [Be]2 | %25
 [gb]4 [gb]4- c^c | [gb]2 ag fg a2 |!<(! f2 e2 (c'2!<)! b2) | %28
 ([fbf']2!f! [egbe']2) [d'g'b'd'']2 [bd'g'b']2 | [ac']2!ped! [ac'][gb] [ac']4 | %30
 z2 [bd']2 [ac']2 [fa]2 | b2 ba b4 | [B=e]2 [ec']2 [eb]2 [eg]2 |!p! [_eg]2 [eg][df] [eg]4 | %34
 z2 cd eg [cegc']2 | [cef]2 e'3 c'c'e' | [bd'f']2 B2 c2 e2 | z2 .[ac'e']2 z2 [ac'e']2 | x8 | %39
!<(! (f2 e2) (c'2!<)! b2) | ([fbf']2 [egbe']2) [Gc]2 [GBe]2 | [gb]4 [gb]4- c^c | [gb]2 ag fg a2 | %43
 f2 e2 (c'2 b2) | ([fbf']2 [egbe']2) ([d'g'b'd'']2 [bd'g'b']2 | [ac']2 [ac'][gb] [ac']4) | %46
 z2 [bd']2 [ac']2 [fa]2 | b2 ba b4 | [B=e]2 [ec']2 [eb]2 [eg]2 | [_eg]2 [eg][df] [eg]4 | %50
 z2 [Ac]e [Bd]e [Adf]2 |99 [GBe]2!<(! [Bb][Bb]!<)! [cc'][Bb] [Gg]2 :|99 %52
 [GBe]2 [gc'][fb] [gc'][fb] [gc']2 |] [gbe']2 z2 [e'g'b'e'']2 z2 |] %54
V:3
 z8 | [F,,C,]2 [F,A,CE]2 [F,,C,]2 [F,A,CE]2 | [F,,C,]2 [F,A,CE]2 B,,,2 [F,A,CD]2 | %3
 [E,,B,,G,]2 [G,B,C]2 [B,,G,]2 [G,B,C]2 | [E,,B,,]2 z2 z4 | F,,2 z2 F,,2 z2 | %6
 F,,2 z2 [B,,,B,,]2 z2 | E,,2 B,,2 B,,,2 B,,2 | [E,,B,,]2 B,2 B,,,2 B,,2 | %9
 [F,,C,]2 [F,C]2 [F,,C,]2 [F,C]2 | [F,,C,]2 [F,C]2 [B,,A,]2 B,,,2 | E,,2 B,,2 G,2 B,,,2 | %12
 [E,,B,,]2 B,2 C2 B,2 | [C,,G,,]2 G,2 G,,2 G,2 | [C,,G,,]2 G,2 E,2 [D,^F,]2 | %15
 G,,2 D,2 x4 =B,2 x4 D,,2 | [G,,D,]2 D2 _D2 =D2 | [F,,C,]2 [F,C]2 [F,,C,]2 [F,C]2 | %18
 [F,,C,]2 [F,C]2 [B,,,B,,]4 | E,,2 B,,2 (!>!G,2 D,2) |: [E,,C,]2 B,,2 C,2 E,2 | %21
 F,,2 [F,A,CE]2 F,,2 [F,A,CE]2 | F,,2 [F,A,]2 [B,,A,]2 B,,,2 | E,,2 B,,2 B,,,2 G,2 | %24
 [C,G,E]2 G2 [G,,G,]4 | [D,A,]2 [DFAc]2 [D,A,]2 [DF]2 x2 | [G,,G,]2 [FG]2 [F,,F,]2 [DG]2 | %27
 E,2 G,2 G,,2 E2 | [C,G,E]2 G2 [Beg]2 [GBe]2 | D,2 [G,F]2 G,,2 [G,F]2 | D,2 [G,F]2 G,,2 [G,F]2 | %31
 E,2 E2 z2 E,2 | C,,2 C,2 C4 | [F,,C,]6 F,,2 | F,,,2 [E,F,][D,F,] [C,F,]2 [E,=A,]2 | %35
 [B,,_A,]2 [B,A]4 [B,A]2 | [B,A]2 B,,2 C,2 E,2 | F,,2 [F,A,CE]2 F,,2 [F,A,CE]2 | %38
 F,,2 [F,A,]2 [B,,A,]2 B,,,2 | E,,2 B,,2 B,,,2 G,2 | [E,,B,,G,]2 B,2 [B,,,B,,]4 | %41
 [F,,C,]2 [F,A,CE]2 [F,,C,]2 [F,A,]2 x2 | [B,,,B,,]2 [A,B,]2 [A,,,A,,]2 [F,B,]2 | %43
 G,,2 B,,2 B,,,2 G,2 | [C,G,E]2 G2 [Beg]2 [GBe]2 | D,2 [G,F]2 G,,2 [G,F]2 | %46
 D,2 [G,F]2 G,,2 [G,F]2 | E,2 E2 z2 E,2 | A,,2 A,2 A4 | [F,,C,]6 F,,2 | %50
 B,,,2 B,,2 A,2 [B,,,B,,]2 |99 [E,,B,,]2 z2 x4 :|99 [E,,B,,]2 z2 z4 |] [E,B,C]2 z2 E,,2 z2 |] %54
V:4
 x8 | z2 [Ac]2 z2 [Ac]2 | z2 [FAc]2 z2 [FAc]2 | z2 [EGB]2!>(! z2!>)! [EGB]2 | x8 | _C4 C4 | %6
 _C4 [A,=C]2 [B,D]2 | [G,B,]4 [CEG]4 | x8 | E4 E4 | E4 [CE]2 D2 | [G,B,]4 [CEG]4 | x8 | G4 G4 | %14
 x8 | [=Bd]4 x10[K:treble-8] x2 | x8 | e4 e4 | e4 x4 | z2 [GBc]2 z2 [GB]2 |: x8 | !>!g4 !>!g4- | %22
 g2 x6 | [GB]4 [ceg]2 [Beg]2 | x8 | x10 | d4 (=c2 d2) | [GB]4 [ceg]2 [Beg]2 | x8 | d8- | %30
 d2 d2 c2 d2 | [ddf]6 [df]2 | x8 | =A8 | x2 =A2 A2 x2 | x2 [c'f']4 f'2 | x8 | g4 g4- | %38
 g2 [cf]e [Bd][ce] [df]2 | [GB]4 [ceg]2 [Beg]2 | x8 | x10 | !>!d4 c2 d2 | [GB]4 [ceg]2 [Beg]2 | %44
 x8 | d8- | d2 d2 c2 x2 | [d_f]6 [df]2 | x8 | =A8 | x8 |99 x8 :|99 x8 |] x8 |] %54

